X:1
T:Title
%%score { 1 | ( 2 3 ) } { ( 4 6 ) | ( 5 7 ) }
L:1/8
M:4/4
K:F
V:1 treble nm="Grand Piano"
V:2 bass 
V:3 bass 
V:4 treble nm="Grand Piano"
V:6 treble 
V:5 bass 
V:7 bass 
V:1
 z4 z2[Q:1/4=100] C2 | A2 A>A A3 A | AG^FG D3 =F | E2 E>G c2 B>A | A4 z2 C2 | A2 A>A A3 A | %6
 AG^FG D3 =F | E2 B>B A2 G>F |[M:3/4] F6 |[M:1/4] (3AB[C_Ac] |[M:4/4] [CAc]2 [Af]>[Ae] [EB]3 [Ec] | %11
 [Ed]2 [Ge]>[Ed] c4 | F2 E>D FEEG | c2 [EG]>[E_A] [F=A]3 [GB] | [Ac]2 [Af]>[Ae] [EB]3 [Ec] | %15
 [Ed]2 [Ge]>[Ed] [Fc]4 | [DAd] [DAd]2 [DA] [DAc][DGB][CDA][B,DG] | %17
[M:35/32] [Fc]2 g3/2-(3:2:6g3/4-g/8f3/4-f/8f3/4-f/8- f3- f/ |] %18
V:2
 z8 | z8 | z8 | z8 | z8 | z8 | z8 | z8 |[M:3/4] z6 |[M:1/4] (3[F,-C-F][F,CG]F, | %10
[M:4/4] F,2 [F,C]>[F,C] [G,C]3 [C,B,] | [C,B,]2 [C,B,]>[C,B,] [F,A,F]4 | [F,A,C]2 C>C [G,B,C]2 CC | %13
 [G,B,E]2 [C,C]>[C,C] [F,C]3 [F,C] | [F,C]2 [F,C]>[F,C] [G,C]3 [C,B,] | %15
 [C,B,]2 [C,B,]>[C,B,] [F,A,]4 | ^F, F,2 F, G,G,,A,,B,, | %17
[M:35/32] [C,A,]2 [C,B,CE]3/2-(3:2:6[C,B,CE]3/4-[C,B,CE]/8[F,A,CF]3/4-[F,A,CF]/8[F,,F,A,CF]3/4-[F,,F,A,CF]/8- [F,,F,A,CF]3- [F,,F,A,CF]/ |] %18
V:3
 x8 | x8 | x8 | x8 | x8 | x8 | x8 | x8 |[M:3/4] x6 |[M:1/4] x2 |[M:4/4] x8 | x8 | %12
 z2 [C,A,]2 z2 [C,B,]2 | x8 | x8 | x8 | x8 |[M:35/32] x35/4 |] %18
V:4
 z4 z2 C2 | A4 A4 | z[K:treble] G^FG D2 D=F | E2 E>G [CAc]2 [B,EGB]>A | A4[K:bass] z4 | A4 A4 | %6
 z[K:treble] G^FG D2 D=F | E2 B>B [CEA]2 [B,EG]2 |[M:3/4] [A,CF]6[K:bass] | %9
[M:1/4][K:treble] (3AB=B |[M:4/4] [Ac]2 f>e z2 [B,C]2 | z4 [Ac]4 | F2 z2 z2 .E2 | %13
 [CEc]2 G>_A z2 [A,CF]2 | [FA]2 [Af]>e z2 [B,C]2 | z4 [Ac]4 | [DAd] .[DAd]3 [Ac][DGB][C^FA][B,DG] | %17
[M:35/32] [Fc]2 [B,CE]3/2-(3:2:6[B,CE]3/4-[B,CE]/8[A,CF]3/4-[A,CF]/8[A,CF]3/4-[A,CF]/8- [A,CF]3- [A,CF]/ |] %18
V:5
 z8 | z2 [A,C]2 z2 [A,^C]2 | z [B,D][B,D][B,D] [B,,,B,,]2 B,2 | %3
 z2 C2 [C,,C,]2 z z/[K:treble] [A,CF]/ | [A,CF]4[K:bass] z4 | z2 [A,C]2 z2 [A,^C]2 | %6
 z [B,D][B,D][B,D] [B,,,B,,]2 B,2 | z2 [DE]>[DE] [C,,C,]2 [C,,C,]2 |[M:3/4] [F,,F,]2 C,,2 F,,2 | %9
[M:1/4][K:treble] (3FG_A |[M:4/4][K:bass] F,,2 [A,CFA]2 G,,2 z[K:treble] c | %11
 z2 [CE]2[K:treble][K:bass] z4 | [F,,C,]2 [C,,C,]2 z [B,C] [C,,C,]2 | %13
 [G,,C,]2 [C,,C,]2 [F,,C,]2 [C,,C,]2 | z2[K:treble] [A,CF]2[K:bass] z2 E,2[K:treble] | %15
 z2 [B,CE]2[K:treble][K:bass] z4 | .[^F,,^F,]2 z[K:treble] A D[K:bass]G,,A,,B,, | %17
[M:35/32] [C,A,C]2 [C,,C,]3/2-(3:2:6[C,,C,]3/4-[C,,C,]/8[F,,C,]3/4-[F,,C,]/8[F,,C,]3/4-[F,,C,]/8- [F,,C,]3- [F,,C,]/ |] %18
V:6
 x8 | z2 F2 z2 F2 | B,,2[K:treble] z2 z4 | x8 | z[K:bass] F,E,D, C,2 C2 | z2 F2 z2 F2 | %6
 B,,2[K:treble] z2 z4 | x8 |[M:3/4] z2[K:bass] C,2 z2 |[M:1/4][K:treble] x2 |[M:4/4] z4 [EB]4 | %11
 [Bd]2 [ce]>d z2 [CF]2 | A,2- [A,-E]>[A,D] FE[B,C]-[B,CG] | z2 [CE]2 =A4 | z4 [EB]4 | %15
 [Bd]2 [ce]>d z2 [CF]2 | x8 |[M:35/32] x35/4 |] %18
V:7
 x8 | F,,4 F,,4 | B,,,2 z2 z4 | [C,,C,]4 z2 [C,,C,]2[K:treble] | z[K:bass] F,,E,,D,, C,,2 z2 | %5
 F,,4 F,,4 | B,,,2 z2 z4 | [C,,C,]4 z4 |[M:3/4] x6 |[M:1/4][K:treble] x2 | %10
[M:4/4][K:bass] z4 z2 E,2[K:treble] | [C,,C,]2 z z/[K:treble] B/[K:bass] F,,2 A,2 | %12
 z4 [G,,C,]2 z2 | x8 | F,,2[K:treble] z z/ A/[K:bass] G,,2 z[K:treble] c | %15
 [C,,C,]2 z z/[K:treble] B/[K:bass] F,,2 A,2 | z [^F,,^F,]3[K:treble] z4[K:bass] | %17
[M:35/32] x35/4 |] %18

